typst-based-book/src/assets/right.svg

<?xml version="1.0" encoding="UTF-8"?>
<svg fill="none" viewBox="0 0 24 24" xmlns="http://www.w3.org/2000/svg">
<path d="m8.5119 4.4306c0.31449-0.26957 0.78797-0.23314 1.0575 0.08135l6 7c0.2407 0.2809 0.2407 0.6953 0 0.9762l-6 7c-0.26957 0.3145-0.74305 0.3509-1.0575 0.0814-0.31449-0.2696-0.35092-0.7431-0.08135-1.0576l5.5816-6.5119-5.5816-6.5119c-0.26957-0.3145-0.23314-0.78797 0.08135-1.0575z" clip-rule="evenodd" fill="#fff" fill-rule="evenodd"/>
</svg>

<svg viewBox="0 0 24 24" fill="none" xmlns="http://www.w3.org/2000/svg"><g stroke-width="0"></g><g stroke-linecap="round" stroke-linejoin="round"></g><g> <path fill-rule="evenodd" clip-rule="evenodd" d="M8.51192 4.43057C8.82641 4.161 9.29989 4.19743 9.56946 4.51192L15.5695 11.5119C15.8102 11.7928 15.8102 12.2072 15.5695 12.4881L9.56946 19.4881C9.29989 19.8026 8.82641 19.839 8.51192 19.5695C8.19743 19.2999 8.161 18.8264 8.43057 18.5119L14.0122 12L8.43057 5.48811C8.161 5.17361 8.19743 4.70014 8.51192 4.43057Z" fill="#fff"></path> </g></svg>
